public/assets/icons/white/reticule.svg

<?xml version="1.0" encoding="UTF-8" standalone="no"?>
<svg
   version="1.1"
   viewBox="0 -64 1024 1024"
   width="512"
   height="512"
   id="svg1"
   sodipodi:docname="reticule.svg"
   inkscape:version="1.3.1 (91b66b0783, 2023-11-16)"
   xmlns:inkscape="http://www.inkscape.org/namespaces/inkscape"
   xmlns:sodipodi="http://sodipodi.sourceforge.net/DTD/sodipodi-0.dtd"
   xmlns="http://www.w3.org/2000/svg"
   xmlns:svg="http://www.w3.org/2000/svg">
  <defs
     id="defs1" />
  <sodipodi:namedview
     id="namedview1"
     pagecolor="#ffffff"
     bordercolor="#000000"
     borderopacity="0.25"
     inkscape:showpageshadow="2"
     inkscape:pageopacity="0.0"
     inkscape:pagecheckerboard="0"
     inkscape:deskcolor="#d1d1d1"
     inkscape:zoom="1.5742188"
     inkscape:cx="256"
     inkscape:cy="255.68238"
     inkscape:window-width="1920"
     inkscape:window-height="1009"
     inkscape:window-x="3832"
     inkscape:window-y="-8"
     inkscape:window-maximized="1"
     inkscape:current-layer="svg1" />
  <g
     transform="matrix(1 0 0 -1 0 960)"
     id="g1"
     style="fill:#ffffff">
    <path
       fill="currentColor"
       d="M530 921v-116q69 -3 129 -31q60 -27 105 -72.5t73 -105.5q27 -60 31 -128h115q-3 92 -40 173q-36 81 -97 142t-142 98q-81 36 -174 40v0zM493 921q-92 -4 -173 -41q-81 -36 -142 -97t-98 -142q-36 -81 -40 -173h117q3 68 31 128q27 60 72 105t105 73q60 27 128 31v116v0z M512 706q-48 0 -91 -16.5t-77 -45.5l45 -45q18 15 40 25.5t47 15.5l37 -141l38 140q24 -4 45.5 -14.5t39.5 -25.5l44 45q-33 29 -76 45.5t-92 16.5v0zM707 617l-45 -44q15 -18 25.5 -40t14.5 -46l-140 -37l140 -38q-4 -24 -14.5 -46t-25.5 -40l44 -45q30 34 46.5 77t16.5 92 q0 48 -16.5 91t-45.5 76v0zM317 617q-29 -34 -45.5 -76.5t-16.5 -90.5q0 -49 16.5 -92t46.5 -77l45 45q-15 19 -25.5 40.5t-15.5 45.5l142 38l-141 38q4 23 14.5 44.5t24.5 39.5l-45 45v0zM40 430q4 -92 41 -173q36 -80 97 -141t142 -98t173 -41v117q-68 4 -127 31 q-60 28 -105 73t-73 105q-27 59 -31 127h-117v0zM868 430q-4 -68 -31 -128q-28 -59 -73.5 -104.5t-105.5 -72.5q-59 -28 -128 -31v-117q93 4 174 41q80 36 141 97t98 142t40 173h-115v0zM513 401l-38 -143q-24 5 -46 15.5t-40 26.5l-45 -45q34 -30 77 -46.5t91 -16.5 q49 0 91.5 16.5t76.5 45.5l-45 45q-18 -15 -39 -25.5t-45 -14.5l-38 142v0z"
       id="path1"
       style="fill:#ffffff" />
  </g>
</svg>

<?xml version="1.0" encoding="UTF-8" standalone="no"?>
<svg
   version="1.1"
   viewBox="0 -64 1024 1024"
   width="512"
   height="512"
   id="svg1"
   sodipodi:docname="reticule.svg"
   inkscape:version="1.2.2 (732a01da63, 2022-12-09)"
   xmlns:inkscape="http://www.inkscape.org/namespaces/inkscape"
   xmlns:sodipodi="http://sodipodi.sourceforge.net/DTD/sodipodi-0.dtd"
   xmlns="http://www.w3.org/2000/svg"
   xmlns:svg="http://www.w3.org/2000/svg">
  <defs
     id="defs1" />
  <sodipodi:namedview
     id="namedview1"
     pagecolor="#ffffff"
     bordercolor="#000000"
     borderopacity="0.25"
     inkscape:showpageshadow="2"
     inkscape:pageopacity="0.0"
     inkscape:pagecheckerboard="0"
     inkscape:deskcolor="#d1d1d1"
     inkscape:zoom="1.5742188"
     inkscape:cx="235.99007"
     inkscape:cy="255.99999"
     inkscape:window-width="1920"
     inkscape:window-height="1009"
     inkscape:window-x="-8"
     inkscape:window-y="-8"
     inkscape:window-maximized="1"
     inkscape:current-layer="svg1"
     showgrid="false" />
  <g
     transform="matrix(1,0,0,-1,0.5,897)"
     id="g1"
     style="fill:#ffffff">
    <path
       fill="currentColor"
       d="M 530,921 V 805 q 69,-3 129,-31 60,-27 105,-72.5 45,-45.5 73,-105.5 27,-60 31,-128 h 115 q -3,92 -40,173 -36,81 -97,142 -61,61 -142,98 -81,36 -174,40 z m -37,0 Q 401,917 320,880 239,844 178,783 117,722 80,641 44,560 40,468 h 117 q 3,68 31,128 27,60 72,105 45,45 105,73 60,27 128,31 z M 512,706 Q 464,706 421,689.5 378,673 344,644 l 45,-45 q 18,15 40,25.5 22,10.5 47,15.5 l 37,-141 38,140 q 24,-4 45.5,-14.5 Q 618,614 636,599 l 44,45 Q 647,673 604,689.5 561,706 512,706 Z M 707,617 662,573 Q 677,555 687.5,533 698,511 702,487 L 562,450 702,412 Q 698,388 687.5,366 677,344 662,326 l 44,-45 q 30,34 46.5,77 16.5,43 16.5,92 0,48 -16.5,91 -16.5,43 -45.5,76 z m -390,0 Q 288,583 271.5,540.5 255,498 255,450 255,401 271.5,358 288,315 318,281 l 45,45 Q 348,345 337.5,366.5 327,388 322,412 l 142,38 -141,38 q 4,23 14.5,44.5 Q 348,554 362,572 Z M 40,430 q 4,-92 41,-173 36,-80 97,-141 61,-61 142,-98 81,-37 173,-41 V 94 q -68,4 -127,31 -60,28 -105,73 -45,45 -73,105 -27,59 -31,127 z m 828,0 Q 864,362 837,302 809,243 763.5,197.5 718,152 658,125 599,97 530,94 V -23 q 93,4 174,41 80,36 141,97 61,61 98,142 37,81 40,173 z M 513,401 475,258 q -24,5 -46,15.5 -22,10.5 -40,26.5 l -45,-45 q 34,-30 77,-46.5 43,-16.5 91,-16.5 49,0 91.5,16.5 Q 646,225 680,254 l -45,45 Q 617,284 596,273.5 575,263 551,259 Z"
       id="path1"
       style="fill:#ffffff" />
  </g>
</svg>
